X:2983
T:Ro, ro til Fiskesk\aer
C:anon.
O:Denmark
N:The lyrics to this song is known both in Norway and Denmark, but the
N:two countries use completely different different tunes for them.
R:Nursery song
Z:Transcribed by Frank Nordberg - http://www.musicaviva.com
F:http://abc.musicaviva.com/tunes/denmark/ro-ro-til-fiskeskaer/ro-ro-til-fiskeskaer-1.abc
M:2/4
L:1/8
K:F
"F"c2Ad|"F"ccAA|"F"ccAd|"F"ccA2|"F"FFAB|
w:Ro, ro til Fis-ke-sk\aer, hvor man-ge Fis-ke faar vi der? En til Far og
"C"cBG2|"F""F"FFGA|"C"cBG2|"F"AA"C"GG|"F"FFF2|]
w:en til Mor, en til S\os-ter, en til Bror og en til gam-le Bed-ste-mor.
W:
W:Ro, ro til Fiskesk\aer,
W:hvor mange Fiske faar vi der?
W:En til Far og en til Mor,
W:en til S\oster, en til Bror
W:og en til gamle Bedstemor.
W:
W:
W:  From Musica Viva - http://www.musicaviva.com
W:  the Internet center for free sheet music downloads.

